X:14196
T:Remembering My Father
R:reel
C:Jerry Holland, SOCAN
O:20th Century Cape Breton
S:Tune ofthe Month July, 2000
A:Copyrights - www.fiddlesticksmusic.com (SOCAN)
N:Contacts ...
N:..... Jerry Holland <jerry@cranfordpub.com>
N:Tune books, related recordings
N:..... Cranford Publications <http://www.cranfordpub.com>
Z:Paul Stewart Cranford 
L:1/8
Q:300
M:C|
K:A
B|c2 d2 ecBA|FEFA cBcA|FBBA BABc|dcdf ecBA|!
c2 d2 ecBA|FEFA cBcA|dcdf e2 cA|BdcB cAA:|!
|:g|abaf e2 ce|feef ed c2|Affe f2 fa|efeA cBBg|!
abaf e2 ce|feef ed c2|Affe f2 fa|ecdB cAA:|]!
